icons/1_Primary/Azure.svg

<svg width="1024" height="1024" fill="none" xmlns="http://www.w3.org/2000/svg"><g clip-path="url(#a)"><path d="M512 1024c282.77 0 512-229.23 512-512S794.77 0 512 0 0 229.23 0 512s229.23 512 512 512Z" fill="#9ABEFF"/><path d="M729.08 730.5a33.881 33.881 0 0 0 32.13-44.76L623.89 279.07A33.884 33.884 0 0 0 591.81 256H432.17a33.875 33.875 0 0 0-32.09 23.07L262.8 685.76a33.883 33.883 0 0 0 16.645 41.013 33.878 33.878 0 0 0 15.485 3.727h99.16a33.88 33.88 0 0 0 32.11-23.07l20.44-60.49 103.46 76.87a33.85 33.85 0 0 0 20.21 6.69M505.8 468.4 581.6 693a11.297 11.297 0 0 1-1.513 10.19 11.283 11.283 0 0 1-9.157 4.72h-.63a11.29 11.29 0 0 1-6.74-2.22L369.32 561.38h101.51m132 146.54a33.543 33.543 0 0 0 .15-22.13L465.77 279.07l-.15-.42h126.21a11.29 11.29 0 0 1 10.71 7.66L739.79 693a11.29 11.29 0 0 1-7.07 14.31" fill="#fff"/></g><defs><clipPath id="a"><path fill="#fff" d="M0 0h1024v1024H0z"/></clipPath></defs></svg>

<svg width="1024" height="1024" viewBox="0 0 1024 1024" fill="none" xmlns="http://www.w3.org/2000/svg">
<g clip-path="url(#clip0_2_1551)">
<path d="M512 1024C794.77 1024 1024 794.77 1024 512C1024 229.23 794.77 0 512 0C229.23 0 0 229.23 0 512C0 794.77 229.23 1024 512 1024Z" fill="#9ABEFF"/>
<path d="M729.08 730.5C734.467 730.507 739.778 729.23 744.572 726.773C749.367 724.317 753.506 720.753 756.648 716.377C759.789 712.001 761.841 706.939 762.635 701.61C763.428 696.282 762.94 690.842 761.21 685.74L623.89 279.07C621.628 272.352 617.316 266.513 611.561 262.374C605.807 258.235 598.898 256.006 591.81 256H432.17C425.08 256.004 418.169 258.232 412.413 262.371C406.656 266.51 402.342 272.35 400.08 279.07L262.8 685.76C261.074 690.86 260.589 696.299 261.384 701.624C262.179 706.95 264.232 712.009 267.373 716.383C270.514 720.756 274.652 724.318 279.445 726.773C284.237 729.228 289.545 730.506 294.93 730.5H394.09C401.184 730.5 408.098 728.274 413.859 724.135C419.62 719.996 423.937 714.153 426.2 707.43L446.64 646.94L550.1 723.81C555.942 728.155 563.029 730.502 570.31 730.5M505.8 468.4L581.6 693C582.174 694.697 582.337 696.506 582.074 698.278C581.811 700.05 581.13 701.734 580.087 703.19C579.045 704.647 577.671 705.835 576.078 706.656C574.486 707.476 572.721 707.906 570.93 707.91H570.3C567.873 707.914 565.51 707.135 563.56 705.69L369.32 561.38H470.83M602.83 707.92C605.382 700.773 605.435 692.971 602.98 685.79L465.77 279.07L465.62 278.65H591.83C594.192 278.646 596.496 279.383 598.417 280.757C600.339 282.131 601.78 284.073 602.54 286.31L739.79 693C740.749 695.835 740.543 698.935 739.217 701.619C737.892 704.302 735.555 706.349 732.72 707.31" fill="white"/>
</g>
<defs>
<clipPath id="clip0_2_1551">
<rect width="1024" height="1024" fill="white"/>
</clipPath>
</defs>
</svg>
